Sweet-Rainbow/icons/input-keyboard.svg

<?xml version="1.0" encoding="UTF-8" standalone="no"?>
<!-- Generator: Gravit.io -->

<svg
   xmlns:dc="http://purl.org/dc/elements/1.1/"
   xmlns:cc="http://creativecommons.org/ns#"
   xmlns:rdf="http://www.w3.org/1999/02/22-rdf-syntax-ns#"
   xmlns:svg="http://www.w3.org/2000/svg"
   xmlns="http://www.w3.org/2000/svg"
   xmlns:sodipodi="http://sodipodi.sourceforge.net/DTD/sodipodi-0.dtd"
   xmlns:inkscape="http://www.inkscape.org/namespaces/inkscape"
   style="isolation:isolate"
   viewBox="0 0 36 36"
   width="48"
   height="48"
   version="1.1"
   id="svg11"
   sodipodi:docname="input-keyboard.svg"
   inkscape:version="0.92.4 (5da689c313, 2019-01-14)">
  <metadata
     id="metadata17">
    <rdf:RDF>
      <cc:Work
         rdf:about="">
        <dc:format>image/svg+xml</dc:format>
        <dc:type
           rdf:resource="http://purl.org/dc/dcmitype/StillImage" />
        <dc:title></dc:title>
      </cc:Work>
    </rdf:RDF>
  </metadata>
  <defs
     id="defs15" />
  <sodipodi:namedview
     pagecolor="#ffffff"
     bordercolor="#666666"
     borderopacity="1"
     objecttolerance="10"
     gridtolerance="10"
     guidetolerance="10"
     inkscape:pageopacity="0"
     inkscape:pageshadow="2"
     inkscape:window-width="640"
     inkscape:window-height="480"
     id="namedview13"
     showgrid="false"
     inkscape:zoom="29.365243"
     inkscape:cx="25.325443"
     inkscape:cy="32"
     inkscape:current-layer="svg11"
     units="px" />
  <linearGradient
     id="_lgradient_72"
     x1="0"
     y1="0.5"
     x2="1"
     y2="0.5"
     gradientTransform="matrix(44,0,0,28,2,10)"
     gradientUnits="userSpaceOnUse">
    <stop
       offset="0%"
       stop-opacity="1"
       style="stop-color:rgb(84,51,255)"
       id="stop2" />
    <stop
       offset="51.73913043478261%"
       stop-opacity="1"
       style="stop-color:rgb(32,189,255)"
       id="stop4" />
    <stop
       offset="98.26086956521739%"
       stop-opacity="1"
       style="stop-color:rgb(165,254,203)"
       id="stop6" />
  </linearGradient>
  <g
     id="g825"
     transform="matrix(0.81818182,0,0,0.81818182,-1.6363637,-1.6363637)">
    <path
       id="path9"
       d="m 15,28 h 18 c 0.552,0 1,0.448 1,1 v 2 c 0,0.552 -0.448,1 -1,1 H 15 c -0.552,0 -1,-0.448 -1,-1 v -2 c 0,-0.552 0.448,-1 1,-1 z m 22,0 h 2 c 0.552,0 1,0.448 1,1 v 2 c 0,0.552 -0.448,1 -1,1 h -2 c -0.552,0 -1,-0.448 -1,-1 v -2 c 0,-0.552 0.448,-1 1,-1 z M 9,28 h 2 c 0.552,0 1,0.448 1,1 v 2 c 0,0.552 -0.448,1 -1,1 H 9 C 8.448,32 8,31.552 8,31 v -2 c 0,-0.552 0.448,-1 1,-1 z m 2,-6 h 2 c 0.552,0 1,0.448 1,1 v 2 c 0,0.552 -0.448,1 -1,1 h -2 c -0.552,0 -1,-0.448 -1,-1 v -2 c 0,-0.552 0.448,-1 1,-1 z m 0,-6 h 2 c 0.552,0 1,0.448 1,1 v 2 c 0,0.552 -0.448,1 -1,1 h -2 c -0.552,0 -1,-0.448 -1,-1 v -2 c 0,-0.552 0.448,-1 1,-1 z m 6,6 h 2 c 0.552,0 1,0.448 1,1 v 2 c 0,0.552 -0.448,1 -1,1 h -2 c -0.552,0 -1,-0.448 -1,-1 v -2 c 0,-0.552 0.448,-1 1,-1 z m 0,-6 h 2 c 0.552,0 1,0.448 1,1 v 2 c 0,0.552 -0.448,1 -1,1 h -2 c -0.552,0 -1,-0.448 -1,-1 v -2 c 0,-0.552 0.448,-1 1,-1 z m 6,6 h 2 c 0.552,0 1,0.448 1,1 v 2 c 0,0.552 -0.448,1 -1,1 h -2 c -0.552,0 -1,-0.448 -1,-1 v -2 c 0,-0.552 0.448,-1 1,-1 z m 0,-6 h 2 c 0.552,0 1,0.448 1,1 v 2 c 0,0.552 -0.448,1 -1,1 h -2 c -0.552,0 -1,-0.448 -1,-1 v -2 c 0,-0.552 0.448,-1 1,-1 z m 6,6 h 2 c 0.552,0 1,0.448 1,1 v 2 c 0,0.552 -0.448,1 -1,1 h -2 c -0.552,0 -1,-0.448 -1,-1 v -2 c 0,-0.552 0.448,-1 1,-1 z m 0,-6 h 2 c 0.552,0 1,0.448 1,1 v 2 c 0,0.552 -0.448,1 -1,1 h -2 c -0.552,0 -1,-0.448 -1,-1 v -2 c 0,-0.552 0.448,-1 1,-1 z m 6,6 h 2 c 0.552,0 1,0.448 1,1 v 2 c 0,0.552 -0.448,1 -1,1 h -2 c -0.552,0 -1,-0.448 -1,-1 v -2 c 0,-0.552 0.448,-1 1,-1 z m 0,-6 h 2 c 0.552,0 1,0.448 1,1 v 2 c 0,0.552 -0.448,1 -1,1 h -2 c -0.552,0 -1,-0.448 -1,-1 v -2 c 0,-0.552 0.448,-1 1,-1 z m 7,9 v 0 c 0,-1.104 0.896,-2 2,-2 v 0 c 1.104,0 2,0.896 2,2 v 0 10 c 0,1.656 -1.344,3 -3,3 H 5 C 3.344,38 2,36.656 2,35 v -4 0 c 0,-1.104 0.896,-2 2,-2 v 0 c 1.104,0 2,0.896 2,2 v 0 2 c 0,0.552 0.448,1 1,1 h 34 c 0.552,0 1,-0.448 1,-1 z M 6,23 v 0 c 0,1.104 -0.896,2 -2,2 v 0 C 2.896,25 2,24.104 2,23 v 0 -10 c 0,-1.656 1.344,-3 3,-3 h 38 c 1.656,0 3,1.344 3,3 v 4 0 c 0,1.104 -0.896,2 -2,2 v 0 c -1.104,0 -2,-0.896 -2,-2 v 0 -2 c 0,-0.552 -0.448,-1 -1,-1 H 7 c -0.552,0 -1,0.448 -1,1 z"
       inkscape:connector-curvature="0"
       style="fill:url(#_lgradient_72);fill-rule:evenodd" />
  </g>
</svg>

<?xml version="1.0" encoding="UTF-8" standalone="no"?><!-- Generator: Gravit.io --><svg xmlns="http://www.w3.org/2000/svg" xmlns:xlink="http://www.w3.org/1999/xlink" style="isolation:isolate" viewBox="0 0 48 48" width="48pt" height="48pt"><linearGradient id="_lgradient_72" x1="0" y1="0.5" x2="1" y2="0.5" gradientTransform="matrix(44,0,0,28,2,10)" gradientUnits="userSpaceOnUse"><stop offset="0%" stop-opacity="1" style="stop-color:rgb(84,51,255)"/><stop offset="51.73913043478261%" stop-opacity="1" style="stop-color:rgb(32,189,255)"/><stop offset="98.26086956521739%" stop-opacity="1" style="stop-color:rgb(165,254,203)"/></linearGradient><path d=" M 15 28 L 33 28 C 33.552 28 34 28.448 34 29 L 34 31 C 34 31.552 33.552 32 33 32 L 15 32 C 14.448 32 14 31.552 14 31 L 14 29 C 14 28.448 14.448 28 15 28 L 15 28 L 15 28 L 15 28 L 15 28 L 15 28 L 15 28 L 15 28 L 15 28 L 15 28 L 15 28 L 15 28 L 15 28 L 15 28 Z  M 37 28 L 39 28 C 39.552 28 40 28.448 40 29 L 40 31 C 40 31.552 39.552 32 39 32 L 37 32 C 36.448 32 36 31.552 36 31 L 36 29 C 36 28.448 36.448 28 37 28 L 37 28 L 37 28 L 37 28 L 37 28 L 37 28 L 37 28 L 37 28 L 37 28 L 37 28 L 37 28 L 37 28 L 37 28 L 37 28 Z  M 9 28 L 11 28 C 11.552 28 12 28.448 12 29 L 12 31 C 12 31.552 11.552 32 11 32 L 9 32 C 8.448 32 8 31.552 8 31 L 8 29 C 8 28.448 8.448 28 9 28 L 9 28 L 9 28 L 9 28 L 9 28 L 9 28 L 9 28 L 9 28 L 9 28 L 9 28 L 9 28 L 9 28 L 9 28 Z  M 11 22 L 13 22 C 13.552 22 14 22.448 14 23 L 14 25 C 14 25.552 13.552 26 13 26 L 11 26 C 10.448 26 10 25.552 10 25 L 10 23 C 10 22.448 10.448 22 11 22 L 11 22 L 11 22 L 11 22 L 11 22 L 11 22 L 11 22 L 11 22 L 11 22 L 11 22 L 11 22 L 11 22 Z  M 11 16 L 13 16 C 13.552 16 14 16.448 14 17 L 14 19 C 14 19.552 13.552 20 13 20 L 11 20 C 10.448 20 10 19.552 10 19 L 10 17 C 10 16.448 10.448 16 11 16 L 11 16 L 11 16 L 11 16 L 11 16 L 11 16 L 11 16 L 11 16 L 11 16 L 11 16 L 11 16 Z  M 17 22 L 19 22 C 19.552 22 20 22.448 20 23 L 20 25 C 20 25.552 19.552 26 19 26 L 17 26 C 16.448 26 16 25.552 16 25 L 16 23 C 16 22.448 16.448 22 17 22 L 17 22 L 17 22 L 17 22 L 17 22 L 17 22 L 17 22 L 17 22 L 17 22 L 17 22 Z  M 17 16 L 19 16 C 19.552 16 20 16.448 20 17 L 20 19 C 20 19.552 19.552 20 19 20 L 17 20 C 16.448 20 16 19.552 16 19 L 16 17 C 16 16.448 16.448 16 17 16 L 17 16 L 17 16 L 17 16 L 17 16 L 17 16 L 17 16 L 17 16 L 17 16 Z  M 23 22 L 25 22 C 25.552 22 26 22.448 26 23 L 26 25 C 26 25.552 25.552 26 25 26 L 23 26 C 22.448 26 22 25.552 22 25 L 22 23 C 22 22.448 22.448 22 23 22 L 23 22 L 23 22 L 23 22 L 23 22 L 23 22 L 23 22 L 23 22 Z  M 23 16 L 25 16 C 25.552 16 26 16.448 26 17 L 26 19 C 26 19.552 25.552 20 25 20 L 23 20 C 22.448 20 22 19.552 22 19 L 22 17 C 22 16.448 22.448 16 23 16 L 23 16 L 23 16 L 23 16 L 23 16 L 23 16 L 23 16 Z  M 29 22 L 31 22 C 31.552 22 32 22.448 32 23 L 32 25 C 32 25.552 31.552 26 31 26 L 29 26 C 28.448 26 28 25.552 28 25 L 28 23 C 28 22.448 28.448 22 29 22 L 29 22 L 29 22 L 29 22 L 29 22 L 29 22 Z  M 29 16 L 31 16 C 31.552 16 32 16.448 32 17 L 32 19 C 32 19.552 31.552 20 31 20 L 29 20 C 28.448 20 28 19.552 28 19 L 28 17 C 28 16.448 28.448 16 29 16 L 29 16 L 29 16 L 29 16 L 29 16 Z  M 35 22 L 37 22 C 37.552 22 38 22.448 38 23 L 38 25 C 38 25.552 37.552 26 37 26 L 35 26 C 34.448 26 34 25.552 34 25 L 34 23 C 34 22.448 34.448 22 35 22 L 35 22 L 35 22 L 35 22 Z  M 35 16 L 37 16 C 37.552 16 38 16.448 38 17 L 38 19 C 38 19.552 37.552 20 37 20 L 35 20 C 34.448 20 34 19.552 34 19 L 34 17 C 34 16.448 34.448 16 35 16 L 35 16 L 35 16 Z  M 42 25 L 42 25 C 42 23.896 42.896 23 44 23 L 44 23 C 45.104 23 46 23.896 46 25 L 46 25 L 46 35 C 46 36.656 44.656 38 43 38 L 5 38 C 3.344 38 2 36.656 2 35 L 2 31 L 2 31 C 2 29.896 2.896 29 4 29 L 4 29 C 5.104 29 6 29.896 6 31 L 6 31 L 6 33 C 6 33.552 6.448 34 7 34 L 41 34 C 41.552 34 42 33.552 42 33 L 42 25 L 42 25 Z  M 6 23 L 6 23 C 6 24.104 5.104 25 4 25 L 4 25 C 2.896 25 2 24.104 2 23 L 2 23 L 2 13 C 2 11.344 3.344 10 5 10 L 43 10 C 44.656 10 46 11.344 46 13 L 46 17 L 46 17 C 46 18.104 45.104 19 44 19 L 44 19 C 42.896 19 42 18.104 42 17 L 42 17 L 42 15 C 42 14.448 41.552 14 41 14 L 7 14 C 6.448 14 6 14.448 6 15 L 6 23 Z " fill-rule="evenodd" fill="url(#_lgradient_72)"/></svg>
